assets/symbols/mulberry/house.svg

<svg height="850.394" viewBox="0 0 850.394 850.394" width="850.394" xmlns="http://www.w3.org/2000/svg"><g fill="#fff"><path d="m310.86 623.29h63.21v64.5h-126.33v-112.66h63.12v1.72z"/><path d="m374.07 575.13v48.16h-63.21v-48.16zm-62.29-153.08h62.29v55.9h-62.29z"/><path d="m247.74 422.05h64.04v55.9h-64.04zm64.04-53.32v53.32h-64.04v-56.76h64.04zm62.29-3.44v56.76h-62.29v-56.76zm153.06 3.44v53.32h-64.05v-56.76h64.05zm0 53.32v55.9h-64.05v-55.9h5.57zm0 0h62.29v55.9h-62.29zm62.29-56.76v56.76h-62.29v-56.76z"/></g><path d="m463.08 563.09h126.34v204.68h-126.34z" fill="#00e800"/><path d="m302 184 .57.69-36.89 30.39h-22.89v-96.32h59.4z" fill="#be0000"/><path d="m657.08 295.12v472.65h-67.66v-204.68h-126.34v204.68h-271.04v-472.65zm-67.66 182.83v-112.66h-126.34v112.66zm-215.35 209.84v-112.66h-126.33v112.66zm0-209.84v-112.66h-126.33v112.66z" fill="#f6cc4b"/><path d="m423.53 85 243.16 200.17-.69.83-8.92 9.12h-465.04l-13.13-8.53 86.77-71.51 36.89-30.39z" fill="#be0000"/><g fill="none" stroke="#231f20"><path d="m463.08 767.77h-271.04v-472.65h465.04v472.65h-67.66" stroke-width="21"/><path d="m374.07 422.05v55.9h-126.33v-112.66h126.33zm0 201.24v64.5h-126.33v-112.66h126.33zm89.01-60.2h126.34v204.68h-126.34zm126.34-141.04v55.9h-126.34v-112.66h126.34z" stroke-width="21"/><path d="m689.92 304.29-23.23-19.12-243.16-200.17-120.96 99.69-36.89 30.39-86.77 71.51-19.32 15.93" stroke-width="28"/><path d="m265.68 215.08h-22.89v-96.32h59.4l-.19 65.24" stroke-width="21"/><path d="m310.86 576.85v104.92m0-58.48h63.21m-126.33-201.24h126.33m-62.29-53.32v109.22m215.35-109.22v109.22m-58.48-55.9h120.77" stroke-width="14"/></g><path d="m0 0h850.394v850.394h-850.394z" fill="none"/></svg>

<svg xmlns="http://www.w3.org/2000/svg" width="850.394" height="850.394" viewBox="0 0 850.394 850.394" overflow="visible"><path fill="#fff" d="M310.86 623.29h63.21v64.5H247.74V575.13h63.12v1.72z"/><path fill="#fff" d="M374.07 575.13v48.16h-63.21v-48.16zM311.78 422.05h62.29v55.9h-62.29z"/><path fill="#fff" d="M247.74 422.05h64.04v55.9h-64.04zM311.78 368.73v53.32h-64.04v-56.76h64.04zM374.07 365.29v56.76h-62.29v-56.76zM527.13 368.73v53.32h-64.05v-56.76h64.05zM527.13 422.05v55.9h-64.05v-55.9h5.57zM527.13 422.05h62.29v55.9h-62.29zM589.42 365.29v56.76h-62.29v-56.76z"/><path fill="#00e800" d="M463.08 563.09h126.34v204.68H463.08z"/><path fill="#be0000" d="M302 184l.57.69-36.89 30.39h-22.89v-96.32h59.4z"/><path d="M657.08 295.12v472.65h-67.66V563.09H463.08v204.68H192.04V295.12h465.04zm-67.66 182.83V365.29H463.08v112.66h126.34zM374.07 687.79V575.13H247.74v112.66h126.33zm0-209.84V365.29H247.74v112.66H374.07z" fill="#f6cc4b"/><path fill="#be0000" d="M423.53 85l243.16 200.17-.69.83-8.92 9.12H192.04l-13.13-8.53 86.77-71.51 36.89-30.39z"/><g fill="none" stroke="#231f20"><path stroke-width="21" d="M463.08 767.77H192.04V295.12h465.04v472.65h-67.66"/><path stroke-width="21" d="M374.07 422.05v55.9H247.74V365.29H374.07zM374.07 623.29v64.5H247.74V575.13h126.33zM463.08 563.09h126.34v204.68H463.08zM589.42 422.05v55.9H463.08V365.29h126.34z"/><path stroke-width="28" d="M689.92 304.29l-23.23-19.12L423.53 85l-120.96 99.69-36.89 30.39-86.77 71.51-19.32 15.93"/><path stroke-width="21" d="M265.68 215.08h-22.89v-96.32h59.4L302 184"/><path stroke-width="14" d="M310.86 576.85V681.77M310.86 623.29h63.21M247.74 422.05H374.07M311.78 368.73v109.22M527.13 368.73v109.22M468.65 422.05h120.77"/></g><path fill="none" d="M0 0h850.394v850.394H0z"/></svg>
